svg/bell_alert_outline.svg

<svg xmlns="http://www.w3.org/2000/svg" viewBox="0 0 24 24"><path d="M12 2a2 2 0 0 0-2 2 2 2 0 0 0 0 .29C7.12 5.14 5 7.82 5 11v6l-2 2v1h18v-1l-2-2v-6c0-3.18-2.12-5.86-5-6.71A2 2 0 0 0 14 4a2 2 0 0 0-2-2m0 4a5 5 0 0 1 5 5v7H7v-7a5 5 0 0 1 5-5m9 1v6h2V7zm0 8v2h2v-2zm-11 6a2 2 0 0 0 2 2 2 2 0 0 0 2-2z"/></svg>

<?xml version="1.0" encoding="UTF-8"?><!DOCTYPE svg PUBLIC "-//W3C//DTD SVG 1.1//EN" "http://www.w3.org/Graphics/SVG/1.1/DTD/svg11.dtd"><svg xmlns="http://www.w3.org/2000/svg" xmlns:xlink="http://www.w3.org/1999/xlink" version="1.1" id="mdi-bell-alert-outline" width="24" height="24" viewBox="0 0 24 24"><path d="M12 2A2 2 0 0 0 10 4A2 2 0 0 0 10 4.29C7.12 5.14 5 7.82 5 11V17L3 19V20H21V19L19 17V11C19 7.82 16.88 5.14 14 4.29A2 2 0 0 0 14 4A2 2 0 0 0 12 2M12 6A5 5 0 0 1 17 11V18H7V11A5 5 0 0 1 12 6M21 7V13H23V7H21M21 15V17H23V15H21M10 21A2 2 0 0 0 12 23A2 2 0 0 0 14 21H10Z" /></svg>
